X:1
T:Coleraine
C:Traditional
M:6/8
L:1/8
Q:3/8=120
K:Am
E|AAA ABc|cBA Bcd|cBA ABc|B^GE E3|AAA ABc|cBA Bcd|cBA B^GE|A3 A3|]
